X: 28108
T: Mr. Thomas Forbes
R: strathspey
M: 4/4
K: Gmixolydian
^f<g|d>cB>A G2 G>c|B<Gc>A B<G^f>g|d>cB>A G>AB>G|
=F<fc>A F2 ^f<g|d>cB>A G2 G>A|B>A G<d B<G G>A|B<Gc<A d<Be<c|f<dc>f A>F F2||
b<ag>^f g2 d>g|b<gd<g B<gd<g|a>gf>e f2 c>f|a<fe<f c<fA<f|
b>ag>^f g2 d>g|b<gd<g B<gd<g|a<fg<e f<de<c|d<Bc<A B<GG||

